X:1
T:Title
%%score { ( 1 3 4 ) | ( 2 5 6 ) }
L:1/8
M:4/4
K:Ab
V:1 treble nm="Grand Piano"
V:3 treble 
V:4 treble 
V:2 bass 
V:5 bass 
V:6 bass 
V:1
 z4 z2[Q:1/4=100] E2 | A3 A AGFG | A4 E2 [A,EA]2 | z4 z2 [Ec]2[K:bass] |[M:3/4][K:treble] B6 | %5
[M:1/4] E2 |[M:4/4] B3 B BAGA | B4 [Ge]2 [EAc]2 | [EGB]2 [B,EG]2 [B,=DFA]2 [A,DF]2 | %9
[M:3/4] [G,E]6 |[M:1/4] [G,E]2 |[M:4/4] [Ec]4 z4 | A,>A, A,>A, [A,DF]2 [A,FA]>[A,FA] | %13
 [A,A]3 [B,G] [CA]2 [Ac]->[EAc] | [GB]2- [EG-B-]2 [EGB]2 [EGB][EGB] | z8 | [GB]6 z2 | %17
 [=DAB]2 [DAB]>[DAB] [EAc]2 [FA=d]2 | [EGe]4 E2 EE | e6 z2 | [Ac]6 z2 | A4 [_Gc]4 | [Fd]6 z2 | %23
 d6 z2 | [GB]6 z2 | G4 [=DF]4[K:bass] | E6[K:treble] z2 | [Ee]2 d2 c2 B2 | %28
 z2[K:bass] z[K:treble] G F2 [Fd]2 | c3 d B4 |[M:3/4] [CA]6 |] %31
V:2
 z4 z2 E,2 | A,3 A, A,G,F,G, | A,4 E,2 C,2 | [A,,A,]3 [A,,A,] [G,,B,]2 .[A,,A,]2 | %4
[M:3/4] [E,G,E]6 |[M:1/4] E,2 |[M:4/4] B,3 B, B,A,G,A, | B,4 [E,B,]2 A,,2 | B,,2 B,,2 B,,2 B,,2 | %9
[M:3/4] E,6 |[M:1/4] E,2 |[M:4/4] [A,,A,]2 z z/ F/ [A,,A,]2 z z/ D/ | A,,>A,, A,,>A,, D,2 D,>D, | %13
 C,3 B,, A,,2 A,,>A,, | E,2 E,2 E,2 E,E, | E,4 E,2 E,2 | E,2 E,>E, E,2 E,>E, | B,2 B,>B, B,2 B,2 | %18
 E,4 E,2 z2 | c6[K:bass][K:treble][K:bass] z2 | [A,,A,]2 A,,2 .A,,>[K:treble]B A>G | %21
 F4[K:bass] z4 | [D,A,]>D, D,2 D,2 D[K:treble]D | B6[K:bass][K:treble][K:bass] z2 | %24
 [E,B,]2 E,2 E,E,[K:treble] G>F | E4[K:bass] z4 | [E,G,]>E, E,2 E,2 [E,G,][D,G,] | %27
 [C,A,]2 [E,G,E]2 [A,E]2 [G,C=E]2 | [CF]4 z4 | [E,A,E]3 [E,B,E] [E,G,D]4 |[M:3/4] [A,,A,]6 |] %31
V:3
 x8 | x8 | x8 | [Ec]3 [Ec] [Ed]2 z[K:bass] C, |[M:3/4][K:treble] x6 |[M:1/4] x2 |[M:4/4] x8 | x8 | %8
 x8 |[M:3/4] x6 |[M:1/4] x2 |[M:4/4] z2 z z/ d/ [Ec]>[DB] [CA]>F | [CE-]4 E4- | E6 E2 | E2 z2 z4 | %15
 [GB]4 [Bd]2 G2 | z2 E>E E2 [EGB]>[EGB] | x8 | x8 | z2 A,A, z z/ f/ [ce]>[Bd] | z2 A,2 .A,>d c>B | %21
 z2 CA z2 [E,A,]2 | z z/ A,/ A,2 A,2 FF | z2 G,G, z z/ e/ [Bd]>[Ac] | z2 B,2 E[EAc] B>A | %25
 z2 B,[B,EG] B,2[K:bass] A,2 | z z/ G,/ G,2 G,2[K:treble] EE | x8 | A4[K:bass][K:treble] z4 | x8 | %30
[M:3/4] x6 |] %31
V:4
 x8 | x8 | x8 | x7[K:bass] x |[M:3/4][K:treble] x6 |[M:1/4] x2 |[M:4/4] x8 | x8 | x8 |[M:3/4] x6 | %10
[M:1/4] x2 |[M:4/4] z2 A,2 z4 | x8 | x8 | x8 | E6 E2- | E2 z2 z4 | x8 | x8 | z4 A,2 z2 | %20
 z4 z A, z2 | x8 | x8 | z4 G,2 z2 | x8 | x6[K:bass] x2 | x6[K:treble] x2 | x8 | %28
 z2[K:bass] C,2[K:treble] z4 | x8 |[M:3/4] x6 |] %31
V:5
 x8 | x8 | x8 | x8 |[M:3/4] x6 |[M:1/4] x2 |[M:4/4] x8 | x8 | x8 |[M:3/4] x6 |[M:1/4] x2 | %11
[M:4/4] z2 A,,2 z2 [A,,A,]2 | x8 | x8 | x8 | x8 | x8 | x8 | x8 | %19
 z2[K:bass] A,,A,, z z/[K:treble] d/[K:bass] [A,,A,]2 | z4 z A,,[K:treble] z2 | %21
 z2[K:bass] F,[F,CF] [E,A,]2 z2 | x7[K:treble] x | %23
 z2[K:bass] E,E, z z/[K:treble] c/[K:bass] [E,G,]2 | x6[K:treble] x2 | z2[K:bass] E,E, B,,2 B,,2 | %26
 x8 | x8 | F,2 z [B,=E] [D,A,]2 [D,A,]2 | x8 |[M:3/4] x6 |] %31
V:6
 x8 | x8 | x8 | x8 |[M:3/4] x6 |[M:1/4] x2 |[M:4/4] x8 | x8 | x8 |[M:3/4] x6 |[M:1/4] x2 | %11
[M:4/4] x8 | x8 | x8 | x8 | x8 | x8 | x8 | x8 | z4[K:bass] A,,2[K:treble][K:bass] z2 | %20
 x11/2[K:treble] x5/2 | x2[K:bass] x6 | x7[K:treble] x | z4[K:bass] E,2[K:treble][K:bass] z2 | %24
 x6[K:treble] x2 | x2[K:bass] x6 | x8 | x8 | x8 | x8 |[M:3/4] x6 |] %31

